X:1
T: Jo's Jig
C:Bruce Shawyer
R:Jig
I:speed 180
K:A
M:6/8
L:1/16
|:c2d2e2 e2c2A2|d2e2f2 f2g2a2|g2b2e2 B2c2d2|c2d2e2 e6|
c2e2a2 a2e2c2|d2f2a2 a2f2d2|b2g2e2 e2d2B2|c2B2A2 A6:|
|:G2A2B2 B2G2E2|c2f2e2 ^d2c2B2|g2b2g2 f2a2f2|e2g2e2 ^d6|
e2f2g2 a2e2c2|f2e2d2 g2f2e2|a2e2c2 f2e2d2|c2B2G2 A6:|
